X: 39704
T: Terry 'Cuz' Teehan's
R: barndance
M: 4/4
K: Eminor
|:B2 BA B2 BA|dB AF DE FA|B2 BA B2 BA|dB AF E3 z|
B2 BA B2 BA|dB AF DE FA|B2 BA B2 BA|dB AF E3 z|
Be ef g2 fe|d2 Bd AD FA|Bz ef g2 fe|dB AF E3 z|
Be ef g2 fe|d2 Bd AD FA|Be ed BA FA|1 DE ED EF GA:|2 DE ED E4||

